X: 31
T: Earl of Eglinton
R:Reel
S:MacDonald - Skye Collection
N:pg.145
M:C
L:1/8
K:Bb
B|FB (3dcB FBDB|FB (3dcB cCCB|FB (3dcB FBDF|(E/F/G) F>E DB,B,B|
FB (3dcB FBDB|FB (3dcB cCCB|FB (3dcB FBDF|Ged>c dBB||
f|dfBf dfbf|(e/f/g) B>d cFFe|dfBf dfbd|ced>c dBBf|
dfBf dfbf|(d/e/f) B>d cFFf|geBg fdBf|ecFe dBB||


